src/assets/duotone/FingerCricle.svg

<?xml version="1.0" encoding="UTF-8"?>
<svg width="24" height="24" viewBox="0 0 24 24" xmlns="http://www.w3.org/2000/svg">
 <path d="m12 22c5.5228 0 10-4.4772 10-10 0-5.5228-4.4772-10-10-10-5.5228 0-10 4.4772-10 10 0 5.5228 4.4772 10 10 10z" opacity=".4"/>
 <path d="m12 9.8701c-0.49 0-0.9 0.39998-0.9 0.89998v2.47c0 0.5 0.4 0.9 0.9 0.9s0.9-0.4 0.9-0.9v-2.47c0-0.5-0.41-0.89998-0.9-0.89998z"/>
 <path d="m12 17.55c-2.62 0-4.75-2.13-4.75-4.75v-1.6c0-2.62 2.13-4.75 4.75-4.75s4.75 2.13 4.75 4.75v1.6c0 2.62-2.13 4.75-4.75 4.75zm0-9.6c-1.79 0-3.25 1.46-3.25 3.25v1.6c0 1.79 1.46 3.25 3.25 3.25s3.25-1.46 3.25-3.25v-1.6c0-1.79-1.46-3.25-3.25-3.25z"/>
</svg>

<svg width="24" height="24" viewBox="0 0 24 24"  xmlns="http://www.w3.org/2000/svg">
<path opacity="0.4" d="M12 22C17.5228 22 22 17.5228 22 12C22 6.47715 17.5228 2 12 2C6.47715 2 2 6.47715 2 12C2 17.5228 6.47715 22 12 22Z" />
<path d="M12.0001 9.87012C11.5101 9.87012 11.1001 10.2701 11.1001 10.7701V13.2401C11.1001 13.7401 11.5001 14.1401 12.0001 14.1401C12.5001 14.1401 12.9001 13.7401 12.9001 13.2401V10.7701C12.9001 10.2701 12.4901 9.87012 12.0001 9.87012Z" />
<path d="M12 17.5502C9.38 17.5502 7.25 15.4202 7.25 12.8002V11.2002C7.25 8.5802 9.38 6.4502 12 6.4502C14.62 6.4502 16.75 8.5802 16.75 11.2002V12.8002C16.75 15.4202 14.62 17.5502 12 17.5502ZM12 7.9502C10.21 7.9502 8.75 9.4102 8.75 11.2002V12.8002C8.75 14.5902 10.21 16.0502 12 16.0502C13.79 16.0502 15.25 14.5902 15.25 12.8002V11.2002C15.25 9.4102 13.79 7.9502 12 7.9502Z" />
</svg>
